assets/svg/marketplace.svg

<svg viewBox="0 0 50 50" xmlns="http://www.w3.org/2000/svg" xmlns:xlink="http://www.w3.org/1999/xlink" width="50.000000" height="50.000000" fill="none">
	<rect id="marketplace" width="50.000000" height="50.000000" x="0.000000" y="0.000000" />
	<g id="Сочетание 1">
		<path id="Форма 1" d="M33.4004 1.49012e-06L33.4004 8.04829L1.49012e-06 6.03622L1.49012e-06 3.01811C1.49012e-06 1.35121 1.35121 1.49012e-06 3.01811 1.49012e-06L33.4004 1.49012e-06Z" fill="rgb(149,176,237)" fill-rule="nonzero" />
		<path id="Форма 2" d="M46.9819 1.49012e-06L42.4547 1.49012e-06L40.9457 12.0724L50 9.05433L50 3.01811C50 1.35121 48.6488 1.49012e-06 46.9819 1.49012e-06Z" fill="rgb(92,43,200)" fill-rule="nonzero" />
		<path id="Форма 3" d="M42.4547 1.49012e-06L33.4004 1.49012e-06C30.9001 1.49012e-06 28.8732 2.02686 28.8732 4.52716L28.8732 6.03622L1.49012e-06 6.03622L1.49012e-06 9.05433L3.01811 12.0724L46.9819 12.0724L46.9819 4.52716C46.9819 2.02686 44.955 1.49012e-06 42.4547 1.49012e-06Z" fill="rgb(78,76,211)" fill-rule="nonzero" />
		<path id="Форма 4" d="M46.9819 9.05433L34.9095 24.2455L46.9819 39.4366L49.2455 39.4366C49.3455 39.4366 49.4418 39.4175 49.5342 39.3792C49.6267 39.3409 49.7082 39.2864 49.779 39.2156C49.8498 39.1449 49.9043 39.0633 49.9426 38.9708C49.9809 38.8784 50 38.7822 50 38.6821L50 9.05433L46.9819 9.05433Z" fill="rgb(149,176,237)" fill-rule="nonzero" />
		<path id="Форма 5" d="M46.9819 9.05433L1.49012e-06 9.05433L1.49012e-06 38.6821C1.49012e-06 38.7822 0.0191465 38.8784 0.0574364 38.9708C0.0957264 39.0633 0.150247 39.1449 0.220997 39.2156C0.291748 39.2864 0.373343 39.3409 0.465784 39.3792C0.558224 39.4175 0.654472 39.4366 0.754529 39.4366L46.9819 39.4366L46.9819 36.4185L40.9457 24.2455L46.9819 12.0724L46.9819 9.05433Z" fill="rgb(172,210,246)" fill-rule="nonzero" />
		<path id="Форма 6" d="M43.9638 12.0724L37.9276 24.2455L43.9638 36.4185L46.9819 36.4185L46.9819 12.0724L43.9638 12.0724Z" fill="rgb(196,243,255)" fill-rule="nonzero" />
		<path id="Форма 7" d="M3.01811 12.0724L43.9638 12.0724L43.9638 36.4185L3.01811 36.4185L3.01811 12.0724Z" fill="rgb(255,255,255)" fill-rule="nonzero" />
		<circle id="Эллипс 1" cx="45.4728317" cy="4.52716446" r="1.50905454" fill="rgb(5,255,119)" />
		<circle id="Эллипс 2" cx="39.4366074" cy="4.52716446" r="1.50905454" fill="rgb(255,208,106)" />
		<circle id="Эллипс 3" cx="33.4004135" cy="4.52716446" r="1.50905454" fill="rgb(255,84,90)" />
		<path id="Форма 8" d="M33.2998 26.5091L31.7907 26.5091L31.7907 19.6177C31.7907 17.5374 30.0984 15.8451 28.0181 15.8451C25.9378 15.8451 24.2455 17.5374 24.2455 19.6177L24.2455 26.5091L22.7364 26.5091L22.7364 19.6177C22.7364 16.7054 25.1058 14.336 28.0181 14.336C30.9304 14.336 33.2998 16.7054 33.2998 19.6177L33.2998 26.5091Z" fill="rgb(255,84,90)" fill-rule="nonzero" />
		<path id="Форма 9" d="M38.5815 24.2455L35.5634 24.2455L33.5513 48.9676L33.5731 48.9721L38.3605 49.779C38.5081 49.6318 38.5817 49.4539 38.5815 49.2455L38.5815 24.2455Z" fill="rgb(255,151,51)" fill-rule="nonzero" />
		<path id="Форма 10" d="M35.5634 24.2455L32.5453 24.2455L26.509 37.1227L32.5453 50L35.5634 48.9676L35.5634 24.2455Z" fill="rgb(255,184,32)" fill-rule="nonzero" />
		<path id="Форма 11" d="M32.5453 50L37.827 50C38.0355 50.0003 38.2133 49.9266 38.3605 49.779L35.5634 46.9819L32.5453 50Z" fill="rgb(255,118,71)" fill-rule="nonzero" />
		<path id="Форма 12" d="M11.4185 24.2455L11.4185 49.2455C11.4185 49.3455 11.4377 49.4418 11.4759 49.5342C11.5142 49.6266 11.5688 49.7082 11.6395 49.779C11.7103 49.8497 11.7919 49.9043 11.8843 49.9426C11.9767 49.9809 12.073 50 12.173 50L32.5453 50L32.5453 24.2455L11.4185 24.2455Z" fill="rgb(255,208,106)" fill-rule="nonzero" />
		<path id="Форма 13" d="M26.509 26.5091C26.409 26.5091 26.3127 26.4899 26.2203 26.4516C26.1278 26.4134 26.0462 26.3588 25.9755 26.2881C25.9047 26.2173 25.8502 26.1357 25.8119 26.0433C25.7736 25.9508 25.7545 25.8546 25.7545 25.7545L25.7545 19.6177C25.7545 17.5374 24.0622 15.8451 21.9819 15.8451C19.9016 15.8451 18.2092 17.5374 18.2092 19.6177L18.2092 25.7545C18.2092 26.1713 17.8715 26.5091 17.4547 26.5091C17.0379 26.5091 16.7002 26.1713 16.7002 25.7545L16.7002 19.6177C16.7002 16.7054 19.0696 14.336 21.9819 14.336C24.8942 14.336 27.2636 16.7054 27.2636 19.6177L27.2636 25.7545C27.2636 26.1713 26.9258 26.5091 26.509 26.5091Z" fill="rgb(255,118,71)" fill-rule="nonzero" />
	</g>
</svg>

<svg xmlns="http://www.w3.org/2000/svg" width="50" height="50" fill="none" viewBox="0 0 50 50"><path d="M0 0h50v50H0z"/><path fill="#95b0ed" d="M33.4 0v8.048L0 6.036V3.018A3.02 3.02 0 0 1 3.018 0z"/><path fill="#5c2bc8" d="M46.982 0h-4.527l-1.51 12.072L50 9.054V3.018A3.02 3.02 0 0 0 46.982 0"/><path fill="#4e4cd3" d="M42.455 0H33.4a4.527 4.527 0 0 0-4.527 4.527v1.51H0v3.017l3.018 3.018h43.964V4.527c0-2.5-2.027-4.527-4.527-4.527"/><path fill="#95b0ed" d="M46.982 9.054 34.91 24.246l12.072 15.19h2.264a.75.75 0 0 0 .533-.22.75.75 0 0 0 .221-.534V9.054z"/><path fill="#acd2f6" d="M46.982 9.054H0v29.628a.75.75 0 0 0 .221.534.75.75 0 0 0 .534.22h46.227V36.42l-6.036-12.173 6.036-12.174z"/><path fill="#c4f3ff" d="m43.964 12.072-6.036 12.174 6.036 12.173h3.018V12.072z"/><path fill="#fff" d="M3.018 12.072h40.946V36.42H3.018z"/><circle cx="45.473" cy="4.527" r="1.509" fill="#05ff77"/><circle cx="39.437" cy="4.527" r="1.509" fill="#ffd06a"/><circle cx="33.4" cy="4.527" r="1.509" fill="#ff545a"/><path fill="#ff545a" d="M33.3 26.51h-1.51v-6.892a3.777 3.777 0 0 0-3.772-3.773 3.777 3.777 0 0 0-3.773 3.773v6.891h-1.509v-6.891a5.29 5.29 0 0 1 5.282-5.282 5.29 5.29 0 0 1 5.282 5.282z"/><path fill="#ff9733" d="M38.582 24.246h-3.019l-2.012 24.722.022.004 4.788.807a.73.73 0 0 0 .22-.534z"/><path fill="#ffb820" d="M35.563 24.246h-3.018L26.51 37.123 32.545 50l3.018-1.032z"/><path fill="#ff7647" d="M32.545 50h5.282a.72.72 0 0 0 .534-.221l-2.798-2.797z"/><path fill="#ffd06a" d="M11.419 24.246v25a.75.75 0 0 0 .465.697.8.8 0 0 0 .289.057h20.372V24.246z"/><path fill="#ff7647" d="M26.509 26.51a.75.75 0 0 1-.534-.222.75.75 0 0 1-.22-.534v-6.136a3.777 3.777 0 0 0-3.773-3.773 3.777 3.777 0 0 0-3.773 3.773v6.137a.754.754 0 1 1-1.509 0v-6.137a5.29 5.29 0 0 1 5.282-5.282 5.29 5.29 0 0 1 5.282 5.282v6.137a.755.755 0 0 1-.755.754"/></svg>
